X: 14638
T: Gan Ainm
R: jig
M: 6/8
K: Dmajor
|:dBA dBA|ecA ecA|~f3 gec|dfb a3|
dBA dBA|ecA ecA|~f3 gec|1 edc d2c:|2 edc d2e||
|:~f3 d2B|ABA Ade|~f3 fed|efe e2f|
~g3 bag|~f3 agf|efg ABc|1 d3 d2e:|2 d3 d2c||

